src/icons/text.svg

<svg viewBox="0 0 16 19" fill="none" xmlns="http://www.w3.org/2000/svg">
<path d="M11.5852 18.3335H4.46656V17.6668C4.83812 17.5317 6.38345 16.6584 6.82256 16.5908V1.66683H2.94656L1.29989 5.14016H0.666562C0.615895 4.80238 0.666562 0.671276 0.666562 0.333496L15.3852 0.333496C15.3852 0.671276 15.4359 4.78549 15.3852 5.14016H14.7266L13.1306 1.66683H9.25456V16.5908C9.69368 16.6753 11.2306 17.5148 11.5852 17.6668V18.3335Z" fill="#3E7BFA"/>
</svg>

<svg viewBox="0 0 16 19" fill="none" xmlns="http://www.w3.org/2000/svg"><path d="M11.585 18.334H4.467v-.667c.371-.135 1.916-1.009 2.356-1.076V1.667H2.947L1.3 5.14H.667c-.051-.338 0-4.469 0-4.807h14.718c0 .338.05 4.452 0 4.807h-.658L13.13 1.667H9.255V16.59c.439.084 1.976.924 2.33 1.076v.666z" fill="#3E7BFA"/></svg>
